!!!!SEGMENT: pl-kk--kk-i-34--003_anonim--rorate-caeli.krn
!!!cenid: 16xx:1333
!!!COM: Anonim
!!!COM-rismid: pe30004985
!!!CDT:
!!!CNT:
!!!OTL: Rorate caeli
!!!PDT:
!!!AGN: Sacred; Mass
!!!SMS-siglum: PL-Kk
!!!SMS-shelfmark: Kk.I.34
!!!SMS-shelfwork: 003 W
!!!SMS-variant:
!!!SMS-altvar:
!!!NIFC-rismid: 1001156655
!!!URL-scan: http://repozytorium.nifc.pl/skany/pl-kk-nut--i-34
!!!ONB-nifc: UWAGA: wg RISM obsada S, A (2), T. W zbiorze: 001 (Missa) – 1. Kyrie, 2. Et in terra, 3. Patrem,
**kern	**text	**kern	**text	**kern	**text	**kern	**text
*part4	*part4	*part3	*part3	*part2	*part2	*part1	*part1
*staff4	*staff4	*staff3	*staff3	*staff2	*staff2	*staff1	*staff1
*Itenor	*	*Ialto	*	*Ialto	*	*Ivox	*
*I"[Tenore]	*	*I"[Alto 2]	*	*I"[Alto 1]	*	*I"[Canto]	*
*I'T	*	*I'A 2	*	*I'A 1	*	*I'S	*
*clefF3	*	*clefC3	*	*clefC3	*	*clefC1	*
*k[b-]	*	*k[b-]	*	*k[b-]	*	*k[b-]	*
*F:	*	*F:	*	*F:	*	*F:	*
*M2/1	*	*M2/1	*	*M2/1	*	*M2/1	*
*met(C|)	*	*met(C|)	*	*met(C|)	*	*met(C|)	*
=1-	=1-	=1-	=1-	=1-	=1-	=1-	=1-
!LO:TX:t=P:problem:znaki: BB- pod B-	!	!	!	!	!	!	!
1C	Ro-	2r	.	1r	.	0r	.
.	.	2g\	Ro-	.	.	.	.
*lig	*	*	*	*	*	*	*
1D	-ra-	4e\	-ra-	2r	.	.	.
.	.	4f\	.	.	.	.	.
.	.	4g\	.	2c/	Ro-	.	.
.	.	4e\	.	.	.	.	.
=2-	=2-	=2-	=2-	=2-	=2-	=2-	=2-
1F	.	2f\	.	4A/	-ra-	2r	.
.	.	.	.	4G/	.	.	.
.	.	2.c/	-te	4A/	.	2cc\	Ro-
.	.	.	.	4B-/	.	.	.
*Xlig	*	*	*	*	*	*	*
*lig	*	*	*	*	*	*	*
1E	-te	.	.	2c/	.	4g/	-ra-
.	.	4d\	.	.	.	4f/	.
.	.	2e\	ro-	2c/	-te	4g/	.
.	.	.	.	.	.	4a\	.
=3-	=3-	=3-	=3-	=3-	=3-	=3-	=3-
1D	.	2f\	.	2d\	ro-	4b-\	.
.	.	.	.	.	.	4a\	.
.	.	2d\	-ra-	2.A/	-ra-	4f/	.
.	.	.	.	.	.	4g/	.
*Xlig	*	*	*	*	*	*	*
1F	cae-	1c	-te	.	.	2a\	.
!	!	!	!	!LO:SIC:v:t=custos c	!	!	!
.	.	.	.	4B-/	.	.	.
!	!	!	!	!LO:LB:g=original	!	!	!
.	.	.	.	4c/	.	2a\	-te
.	.	.	.	4A/	.	.	.
=4-	=4-	=4-	=4-	=4-	=4-	=4-	=4-
*lig	*	*	*	*	*	*	*
1D	.	2d\	Cae-	2B-/	.	4f/	cae-
.	.	.	.	.	.	4g/	.
.	.	1d	-li	2A/	-te	4a\	.
.	.	.	.	.	.	4f/	.
!LO:TX:t=P:problem:♭ above	!	!	!	!	!	!	!
1E-X	.	.	.	1G	cae-	1g	.
.	.	2c/	.	.	.	.	.
*Xlig	*	*	*	*	*	*	*
=5-	=5-	=5-	=5-	=5-	=5-	=5-	=5-
1D	-li	2d\	de-	2A/	.	2f/	-li
.	.	2f\	.	2F/	.	2a\	de-
*lig	*	*	*	*	*	*	*
1BB-	de-	4d\	.	1B-	-li	2.b-\	-su-
.	.	4e\	.	.	.	.	.
!	!	!LO:LB:g=original	!	!	!	!	!
.	.	4f\	.	.	.	.	.
.	.	4d\	.	.	.	4a\	.
=6-	=6-	=6-	=6-	=6-	=6-	=6-	=6-
1C	.	4e\	.	2r	.	2g/	-per
.	.	4d\	.	.	.	.	.
.	.	4e\	.	2G/	de-	2.cc\	de-
.	.	4f\	.	.	.	.	.
*Xlig	*	*	*	*	*	*	*
*lig	*	*	*	*	*	*	*
1C	-ſu-	2g\	-ſu-	2.c/	.	.	.
.	.	.	.	.	.	4b-\	.
.	.	2e\	.	.	.	4a\	.
.	.	.	.	4B-/	.	4g\	.
=7-	=7-	=7-	=7-	=7-	=7-	=7-	=7-
1F	.	1f	-per	4A/	.	4a\	.
.	.	.	.	4G/	.	4b-\	.
.	.	.	.	2A/	-su-	4cc\	.
.	.	.	.	.	.	4a\	.
*Xlig	*	*	*	*	*	*	*
1G	.	2r	.	4G/	-per	1b-	.
.	.	.	.	4A/	.	.	.
.	.	2d\	de-	4B-/	.	.	.
.	.	.	.	4c/	.	.	.
=8-	=8-	=8-	=8-	=8-	=8-	=8-	=8-
*lig	*	*	*	*	*	*	*
1D	.	2.f\	-ſu-	4d\	.	4a\	-su-
.	.	.	.	4e\	.	4g\	.
.	.	.	.	1f	.	4a\	.
.	.	4f\	-per	.	.	4b-\	.
!	!	!	!	!	!	!LO:LB:g=original	!
1C	.	4e\	.	.	.	1cc	-per
.	.	4d\	.	.	.	.	.
.	.	4c/	.	2e\	de-	.	.
.	.	4B-/	.	.	.	.	.
*Xlig	*	*	*	*	*	*	*
=9-	=9-	=9-	=9-	=9-	=9-	=9-	=9-
*lig	*	*	*	*	*	*	*
1D	-per	2A/	.	4f\	.	2r	.
.	.	.	.	4e\	.	.	.
.	.	2B-/	de-	4d\	.	2f/	et
.	.	.	.	4c/	.	.	.
!LO:TX:t=P:problem:♭ above	!	!	!	!	!	!	!
1E-X	.	4G/	.	4B-/	.	1g	Nu-
.	.	4A/	.	4A/	.	.	.
.	.	4B-/	.	2G/	-su-	.	.
.	.	4c/	.	.	.	.	.
*Xlig	*	*	*	*	*	*	*
=10-	=10-	=10-	=10-	=10-	=10-	=10-	=10-
1D	.	4d\	.	2A/	-per	2f/	-bes
.	.	4e\	.	.	.	.	.
*	*	*	*	*	*	*	*ij
.	.	2.f\	-ſu-	2.d\	et	2a\	et
*lig	*	*	*	*	*	*	*
1BB-	et	.	.	.	.	1b-	Nu-
.	.	4e\	.	4d\	nu-	.	.
.	.	2d\	-p(er)	2f\	-bes	.	.
=11-	=11-	=11-	=11-	=11-	=11-	=11-	=11-
!LO:TX:a:t=P:problem:oddech jako rozdzielacz słów:global	!	!	!	!	!	!	!
1C,<	.	2.c/	de-	4e\	plu-	2g/	-bes
*	*	*	*	*	*	*	*Xij
.	.	.	.	4d\	.	.	.
.	.	.	.	4e\	.	2cc\	plu-
.	.	4d\	.	4f\	.	.	.
*Xlig	*	*	*	*	*	*	*
*lig	*	*	*	*	*	*	*
1C	nu-	4e\	.	4g\	.	2.cc\	-ant
!	!	!	!	!LO:SIC:v:t=custos e	!	!	!
.	.	4f\	.	4f\	.	.	.
!	!	!	!	!LO:LB:g=original	!	!	!
.	.	2g\	-su-	4e\	.	.	.
.	.	.	.	4d\	.	4b-\	.
=12-	=12-	=12-	=12-	=12-	=12-	=12-	=12-
1F	.	2f\	-p(er)	4c/	.	4a\	.
.	.	.	.	4B-/	.	4g/	.
.	.	2c/	et	2A/	.	4f/	.
.	.	.	.	.	.	4e/	.
*Xlig	*	*	*	*	*	*	*
1G	.	1g	nub-	1B-	-ant	2d/	.
.	.	.	.	.	.	2.dd\	plu-
=13-	=13-	=13-	=13-	=13-	=13-	=13-	=13-
1D	.	2f\	.	2.A/	plu-	.	.
.	.	.	.	.	.	4cc\	.
.	.	2.f\	-es	.	.	4b-\	.
.	.	.	.	4G/	.	4a\	.
*lig	*	*	*	*	*	*	*
1D	-bes	.	.	2F/	.	4b-\	.
.	.	4e\	.	.	.	4a\	.
.	.	2d\	et	2A/	-ant	4f/	.
.	.	.	.	.	.	4g/	.
=14-	=14-	=14-	=14-	=14-	=14-	=14-	=14-
!	!	!LO:SIC:v:t=custos d	!	!	!	!	!
1C	.	1e	nu-	2.c/	Ju-	2a\	.
.	.	.	.	.	.	2g/	-ant
.	.	.	.	4B-/	.	.	.
*Xlig	*	*	*	*	*	*	*
!LO:LB:g=original	!	!LO:PB:g=original	!	!	!	!	!
*lig	*	*	*	*	*	*	*
1D	.	2.d\	-bes	1A	.	4f/	Ju-
.	.	.	.	.	.	4g/	.
.	.	.	.	.	.	4a\	.
.	.	4c/	.	.	.	4f/	.
=15-	=15-	=15-	=15-	=15-	=15-	=15-	=15-
!LO:TX:t=P:problem:♭ above	!	!	!	!	!	!	!
1E-X	.	4B-/	.	2G/	-stu(m)	0g	.
.	.	4A/	.	.	.	.	.
.	.	1G	.	2B-/	a-	.	.
*Xlig	*	*	*	*	*	*	*
*lig	*	*	*	*	*	*	*
1C	.	.	.	1e	-pe-	.	.
.	.	2c/	plu-	.	.	.	.
=16-	=16-	=16-	=16-	=16-	=16-	=16-	=16-
1D	.	2A/	-ant	2d\	-ri-	1f	-stum
.	.	2B-/	.	1B-	-a-	.	.
*Xlig	*	*	*	*	*	*	*
*lig	*	*	*	*	*	*	*
1C	.	4c\	.	.	.	1r	.
.	.	4d\	.	.	.	.	.
.	.	4e\	.	2A/	-t(ur)	.	.
.	.	4c\	.	.	.	.	.
=17-	=17-	=17-	=17-	=17-	=17-	=17-	=17-
1BB-	.	4d\	.	2B-/	ter-	2r	.
.	.	4e\	.	.	.	.	.
.	.	1f	Ju-	2d\	.	2b-\	a-
*Xlig	*	*	*	*	*	*	*
1C	.	.	.	1c	-ra	2a\	-pe-
.	.	4e\	.	.	.	4g/	-ri-
.	.	4d\	.	.	.	4f/	.
!	!	!	!	!	!	!LO:LB:g=original	!
=18-	=18-	=18-	=18-	=18-	=18-	=18-	=18-
*lig	*	*	*	*	*	*	*
1C	.	2e\	-ſtu(m)	1r	.	(<2g/	-a-
!	!	!LO:TX:b:t=P:problem:t. 18-22 inną ręką poprawiony tekst	!	!	!	!	!
.	.	2g\	plu-	.	.	2cc\)	.
1D,<	.	4f\	-ant	2r	.	2a\	-tur
.	.	4e\	.	.	.	.	.
.	.	4d\	.	2f\	-a-	2dd\	a-
.	.	4c\	.	.	.	.	.
*Xlig	*	*	*	*	*	*	*
=19-	=19-	=19-	=19-	=19-	=19-	=19-	=19-
1BB-	a-	4d\	.	2d\	-pe-	2dd\	-pe-
.	.	4c/	.	.	.	.	.
.	.	4B-/	.	2f\	-ri-	2dd\	-ri-
.	.	4A/	.	.	.	.	.
*lig	*	*	*	*	*	*	*
1C	.	2G/	.	4e\	-a-	2.cc\	-a-
.	.	.	.	4f\	.	.	.
.	.	2.c/	plu-	4g\	.	.	.
.	.	.	.	4e\	.	4b-\	.
=20-	=20-	=20-	=20-	=20-	=20-	=20-	=20-
1F	.	.	.	2f\	.	4a\	.
.	.	4B-/	.	.	.	4g/	.
.	.	4A/	.	2c/	-tur	2.a\	.
.	.	4G/	.	.	.	.	.
*Xlig	*	*	*	*	*	*	*
*lig	*	*	*	*	*	*	*
1D	-pe-	2F/	.	2.d\	ter-	.	.
.	.	.	.	.	.	4g/	.
.	.	2A/	-ant	.	.	2f/	.
.	.	.	.	4c/	.	.	.
=21-	=21-	=21-	=21-	=21-	=21-	=21-	=21-
!LO:TX:t=P:problem:♭ above	!	!	!	!	!	!	!
1E-X	.	4G/	Ju-	4B-/	.	2g/	.
.	.	4A/	.	4A/	.	.	.
.	.	4B-/	.	2G/	.	2g/	-tur
.	.	4c/	.	.	.	.	.
*Xlig	*	*	*	*	*	*	*
*lig	*	*	*	*	*	*	*
1D	.	4d\	.	2A/	.	4f/	ter-
!	!	!LO:SIC:v:t=custos f	!	!	!	!	!
.	.	4e\	.	.	.	4g/	.
!	!	!LO:LB:g=original	!	!LO:LB:g=original	!	!	!
.	.	1f\	.	2F/	-ra	4a\	.
.	.	.	.	.	.	4b-\	.
=22-	=22-	=22-	=22-	=22-	=22-	=22-	=22-
1C	.	.	.	2G/	et	1cc	-ra
.	.	2e\	-ſtu(m)	2c/	.	.	.
*Xlig	*	*	*	*	*	*	*
*lig	*	*	*	*	*	*	*
1D	-ri-	2f\	Ju-	2A/	ger-	1r	.
.	.	4e\	.	2B-/	-mi-	.	.
.	.	4d\	.	.	.	.	.
=23-	=23-	=23-	=23-	=23-	=23-	=23-	=23-
1C	.	1e	-ſtu(m)	2.c\	-net	2r	.
.	.	.	.	.	.	2g/	et
.	.	.	.	4d\	.	.	.
*Xlig	*	*	*	*	*	*	*
*lig	*	*	*	*	*	*	*
1C	-a-	2r	.	4e\	.	2.cc\	ger-
.	.	.	.	4f\	.	.	.
.	.	2c/	et	4g\	.	.	.
.	.	.	.	4e\	.	4b-\	.
=24-	=24-	=24-	=24-	=24-	=24-	=24-	=24-
1F	.	2.c/	ger-	2f\	.	4a\	.
.	.	.	.	.	.	4g\	.
.	.	.	.	4e\	.	2a\	-mi-
.	.	4B-/	.	4d\	.	.	.
*Xlig	*	*	*	*	*	*	*
1F	-tur	4A/	.	1c	.	4f/	-net
.	.	4G/	.	.	.	4g\	.
.	.	2F/	.	.	.	4a\	.
.	.	.	.	.	.	4b-\	.
=25-	=25-	=25-	=25-	=25-	=25-	=25-	=25-
*lig	*	*	*	*	*	*	*
!	!	!	!	!	!	!LO:SIC:v:t=custos b-	!
1Eny	ter-	2G/	.	2r	.	2.cc\	.
.	.	2G/	-mi-	2c/	et	.	.
!	!	!	!	!	!	!LO:PB:g=original	!
.	.	.	.	.	.	4b-\	ger-
1F	.	4F/	-net	4c/	ger-	4a\	.
.	.	4G/	.	4B-/	.	4g\	.
.	.	4A/	.	4A/	.	2.f/	.
.	.	4B-/	.	4G/	.	.	.
*Xlig	*	*	*	*	*	*	*
=26-	=26-	=26-	=26-	=26-	=26-	=26-	=26-
1F	-ra	4c\	.	2.A/	.	.	.
.	.	4B-/	.	.	.	4g\	.
.	.	4c/	.	.	.	4a\	.
.	.	4d\	.	4A/	-[mi]-	4b-\	.
*lig	*	*	*	*	*	*	*
1E	.	4e\	.	2G/	-net	2.cc\	.
.	.	4f\	.	.	.	.	.
*	*	*	*	*	*ij	*	*
.	.	4g\	.	2c/	et	.	.
.	.	4e\	.	.	.	4cc\	-mi-
=27-	=27-	=27-	=27-	=27-	=27-	=27-	=27-
1D,<	.	2f\	et	2B-/	.	1dd	-net
.	.	2d\	.	2A/	.	.	.
*Xlig	*	*	*	*	*	*	*
1F	et	4c/	ger-	2.A/	ger-	2r	.
.	.	4B-/	.	.	.	.	.
.	.	4A/	.	.	.	1cc\	et
.	.	4G/	.	4B-/	.	.	.
!LO:LB:g=original	!	!	!	!	!	!	!
=28-	=28-	=28-	=28-	=28-	=28-	=28-	=28-
*lig	*	*	*	*	*	*	*
1F	ger-	2.A/	.	4c/	.	.	.
.	.	.	.	4B-/	.	.	.
.	.	.	.	4c/	.	2a\	ger-
.	.	4B-/	-mi-	4d\	.	.	.
!	!	!LO:SIC:v:t=custos c	!	!	!	!	!
1E	.	2c/	-net	4e\	.	2g/	.
.	.	.	.	4f\	.	.	.
!	!	!LO:LB:g=original	!	!	!	!	!
.	.	2c/	et	4g\	.	2cc\	.
.	.	.	.	4e\	.	.	.
*Xlig	*	*	*	*	*	*	*
=29-	=29-	=29-	=29-	=29-	=29-	=29-	=29-
*lig	*	*	*	*	*	*	*
1D	.	2d\	ger-	2.f\	.	4b-\	.
.	.	.	.	.	.	4a\	.
.	.	2A/	-mi-	.	.	2.dd\	.
.	.	.	.	4e\	-[mi]-	.	.
1G	.	4B-/	-net	2d\	-net	.	.
*	*	*	*	*	*Xij	*	*
.	.	4c\	.	.	.	4cc\	.
!	!	!	!	!LO:LB:g=original	!	!	!
.	.	4d\	.	2.d\	et	4b-\	.
.	.	4e\	.	.	.	4g\	.
*Xlig	*	*	*	*	*	*	*
=30-	=30-	=30-	=30-	=30-	=30-	=30-	=30-
1F	.	1f	.	.	.	2a\	.
.	.	.	.	4c/	.	.	.
.	.	.	.	4A/	.	2a\	-mi-
.	.	.	.	4B-/	.	.	.
1E	-mi-	1r	.	2c/	ger-	1g	-net
.	.	.	.	2B-/	.	.	.
=31-	=31-	=31-	=31-	=31-	=31-	=31-	=31-
*lig	*	*	*	*	*	*	*
1F	-net	2.f\	et	4A/	.	1a	et
.	.	.	.	4B-/	.	.	.
.	.	.	.	4c/	.	.	.
.	.	4e\	.	4A/	.	.	.
1G	.	2d\	ger-	2B-/	.	2.g/	ger-
.	.	2e\	.	2B-/	-mi-	.	.
.	.	.	.	.	.	4g/	-mi-
*Xlig	*	*	*	*	*	*	*
=32-	=32-	=32-	=32-	=32-	=32-	=32-	=32-
*lig	*	*	*	*	*	*	*
1F	.	2f\	.	1A	-net	2c/	-net
.	.	2.d\	.	.	.	2d/	.
1E	.	.	.	1G	.	4e/	.
.	.	4c/	.	.	.	4f/	.
.	.	1c\	-mi-	.	.	4g/	.
.	.	.	.	.	.	4e/	.
*Xlig	*	*	*	*	*	*	*
=33-	=33-	=33-	=33-	=33-	=33-	=33-	=33-
*lig	*	*	*	*	*	*	*
!	!	!	!	!	!	!LO:SIC:v:t=custos e	!
1D	.	.	.	0r	.	1f	.
.	.	2B-/	-net	.	.	.	.
!	!	!	!	!	!	!LO:LB:g=original	!
1C	.	4c\	.	.	.	2.e/	ger-
.	.	4d\	.	.	.	.	.
.	.	4e\	.	.	.	.	.
.	.	4c\	.	.	.	4f/	.
*Xlig	*	*	*	*	*	*	*
=34-	=34-	=34-	=34-	=34-	=34-	=34-	=34-
*lig	*	*	*	*	*	*	*
1BB-	Sal-	0d	.	2r	.	4g/	.
.	.	.	.	.	.	4f/	.
.	.	.	.	2.F/	Sal-	4d/	.
.	.	.	.	.	.	4e/	.
1D	.	.	.	.	.	4f/	.
.	.	.	.	4G/	.	4e/	.
.	.	.	.	2.A/	-va-	4f/	.
.	.	.	.	.	.	4g/	.
*Xlig	*	*	*	*	*	*	*
=35-	=35-	=35-	=35-	=35-	=35-	=35-	=35-
*lig	*	*	*	*	*	*	*
1F	.	1r	.	.	.	1a	.
.	.	.	.	4B-/	.	.	.
.	.	.	.	1c	-to-	.	.
1G	.	2.d\	Sal-	.	.	4g\	.
.	.	.	.	.	.	4a\	.
.	.	.	.	2B-/	.	4b-\	.
.	.	4e\	.	.	.	4cc\	.
*Xlig	*	*	*	*	*	*	*
=36-	=36-	=36-	=36-	=36-	=36-	=36-	=36-
1F	-va-	2.f\	-va-	4A/	.	2dd\	.
.	.	.	.	4G/	.	.	.
.	.	.	.	4A/	.	(4cc\	.
.	.	4g\	.	4B-/	.	4b-\)	.
*lig	*	*	*	*	*	*	*
1F	-to-	4a\	-to-	2c/	.	2a\	.
.	.	4g\	.	.	.	.	.
.	.	4f\	.	2A/	-re(m)	1cc\	.
.	.	4e\	.	.	.	.	.
=37-	=37-	=37-	=37-	=37-	=37-	=37-	=37-
1G	.	2d\	.	4B-/	Sal-	.	.
.	.	.	.	4A/	.	.	.
.	.	2e\	.	4B-/	.	2b-\	-mi-
.	.	.	.	4c/	.	.	.
*Xlig	*	*	*	*	*	*	*
*lig	*	*	*	*	*	*	*
!	!	!LO:TX:a:t=Vi	!	!	!	!	!
1F	.	2f\	-re(m)	4d\	.	1a	-net
.	.	.	.	4c/	.	.	.
!	!	!LO:TX:a:t=de	!	!	!	!	!
.	.	2.c/	Sal-	4A/	.	.	.
.	.	.	.	4B-/	.	.	.
=38-	=38-	=38-	=38-	=38-	=38-	=38-	=38-
1E	.	.	.	2c/	.	1g	.
.	.	4d\	.	.	.	.	.
.	.	2e\	-va-	2G/	-va-	.	.
*Xlig	*	*	*	*	*	*	*
!	!	!LO:SIC:v:t=custos a	!	!	!	!	!
1D	.	2f\	.	4B-/	-to-	2r	.
.	.	.	.	4A/	.	.	.
!	!	!LO:LB:g=original	!	!	!	!	!
.	.	2.a\	to-	4F/	.	2.f/	Sal-
.	.	.	.	4G/	.	.	.
=39-	=39-	=39-	=39-	=39-	=39-	=39-	=39-
*lig	*	*	*	*	*	*	*
1D	-rem	.	.	4A/	.	.	.
.	.	4g\	.	4B-/	.	4g/	.
!	!	!	!	!LO:LB:g=original	!	!	!
.	.	2f\	-re(m)	2.c/	.	2.a\	-va-
1F	.	2.c/	Sal-	.	.	.	.
.	.	.	.	4B-/	.	4b-\	.
.	.	.	.	2A/	.	1cc\	-to-
.	.	4d\	.	.	.	.	.
*Xlig	*	*	*	*	*	*	*
=40-	=40-	=40-	=40-	=40-	=40-	=40-	=40-
*lig	*	*	*	*	*	*	*
1C	.	4e\	-va-	1G	-re(m)	.	.
.	.	4f\	.	.	.	.	.
.	.	4g\	.	.	.	2cc\	-re(m)
.	.	4e\	.	.	.	.	.
1D	.	1f	-to-	1r	.	2a\	Sal-
.	.	.	.	.	.	2b-\	.
*Xlig	*	*	*	*	*	*	*
=41-	=41-	=41-	=41-	=41-	=41-	=41-	=41-
*lig	*	*	*	*	*	*	*
1C	.	1e	-re(m)	2r	.	2cc\	.
.	.	.	.	2c/	al-	2g\	.
1BB-,<	.	2r	.	4d\	-le-	1b-	-va-
.	.	.	.	4c\	.	.	.
.	.	2f\	al-	4d\	.	.	.
.	.	.	.	4e\	.	.	.
*Xlig	*	*	*	*	*	*	*
!	!	!	!	!	!	!LO:LB:g=original	!
=42-	=42-	=42-	=42-	=42-	=42-	=42-	=42-
1D	al-	4d\	-le-	2f\	.	4a\	-to-
.	.	4e\	.	.	.	4g\	.
.	.	4f\	.	2d\	.	4a\	.
.	.	4d\	.	.	.	4b-\	.
!LO:LB:g=original	!	!	!	!LO:TX:t=P:problem:♭ above	!	!	!
1C	-le-	2g\	-lu-	2e-X\	-lu-	1cc	-re(m)
.	.	2g\	-ia	2e-\	-ia	.	.
=43-	=43-	=43-	=43-	=43-	=43-	=43-	=43-
*lig	*	*	*ij	*	*ij	*	*
1D	-lu-	4f\	al-	4d\	al-	1r	.
.	.	4e\	.	4c/	.	.	.
.	.	4d\	.	4B-/	.	.	.
.	.	4c/	.	4A/	.	.	.
!LO:TX:t=P:problem:♭ above	!	!	!	!	!	!	!
1E-X	.	2B-/	-le-	4G/	.	2r	.
.	.	.	.	4A/	.	.	.
.	.	2G/	.	4B-/	.	2g/	al-
.	.	.	.	4c/	.	.	.
*Xlig	*	*	*	*	*	*	*
=44-	=44-	=44-	=44-	=44-	=44-	=44-	=44-
1D,<	-ia	2A/	-lu-	2d\	.	4f/	-le-
.	.	.	.	.	.	4g/	.
.	.	2F/	.	2c\	-le-	4a\	.
.	.	.	.	.	.	4b-\	.
1C	al-	2G/	.	2e-X\	.	2cc\	.
.	.	2A/	.	2c/	.	2cc\	-lu-
=45-	=45-	=45-	=45-	=45-	=45-	=45-	=45-
*lig	*	*	*	*	*	*	*
1D	-le-	2A/	-ia	2f\	.	2a\	-ia
.	.	2B-/	al-	2d\	-lu-	2f/	.
1F	.	4A/	-le-	1c	ia	4a\	al-
*	*	*	*	*	*Xij	*	*
.	.	4B-/	.	.	.	4g/	.
.	.	4c\	.	.	.	4a\	.
.	.	4d\	.	.	.	4b-\	.
*Xlig	*	*	*	*	*	*	*
=46-	=46-	=46-	=46-	=46-	=46-	=46-	=46-
*lig	*	*	*	*	*	*	*
1C	-lu-	4e\	.	2r	.	2.cc\	.
!	!	!LO:SIC:v:t=custos g	!	!	!	!	!
.	.	4f\	.	.	.	.	.
!	!	!LO:LB:g=original	!	!	!	!	!
.	.	4g\	.	2c/	al-	.	.
.	.	4e\	.	.	.	4b-\	.
1D	.	2f\	-lu-	4F/	-le-	4a/	.
.	.	.	.	4G/	.	4g/	.
.	.	2d\	-ia	4A/	.	1f/	-le-
.	.	.	.	4B-/	.	.	.
*Xlig	*	*	*Xij	*	*	*	*
=47-	=47-	=47-	=47-	=47-	=47-	=47-	=47-
0C	-ia	2.g\	al-	2c/	.	.	.
.	.	.	.	2c/	-lu-	4e/	.
.	.	4f\	.	.	.	4d/	.
.	.	4e\	.	2c/	-ia	2e/	-lu-
.	.	4d\	.	.	.	.	.
*	*	*	*	*	*ij	*	*
.	.	1c\	.	2.G/	al-	2e/	-ia
=48-	=48-	=48-	=48-	=48-	=48-	=48-	=48-
0GG	.	.	.	.	.	2d/	al-
.	.	.	.	4A/	.	.	.
.	.	4B-/	-le-	4B-/	.	2.g/	-le-
.	.	4A/	.	4c/	.	.	.
.	.	1B-	-lu-	2d\	-le-	.	.
.	.	.	.	.	.	8f/L	.
.	.	.	.	.	.	8e/J	.
.	.	.	.	2G/	-lu-	2d/	-lu-
=49-	=49-	=49-	=49-	=49-	=49-	=49-	=49-
0C;;l	.	0c;;l	-ia	0Gl	-ia	0e;;l	-ia
*	*	*	*	*	*Xij	*	*
!	!	!	!	!LO:LB:g=original	!	!LO:LB:g=original	!
=50||	=50||	=50||	=50||	=50||	=50||	=50||	=50||
*k[b-]	*	*k[b-]	*	*k[b-]	*	*k[b-]	*
*M2/1	*	*M2/1	*	*M2/1	*	*M2/1	*
*met(C|)	*	*met(C|)	*	*met(C|)	*	*met(C|)	*
*lig	*	*	*	*	*	*	*
!LO:TX:t=P:problem:znaki: BB- pod B-	!	!	!	!	!	!	!
1C	Be-	0r	.	2.c/	Be-	0r	.
.	.	.	.	4B-/	.	.	.
1D	.	.	.	2A/	-ne-	.	.
.	.	.	.	2F/	.	.	.
*Xlig	*	*	*	*	*	*	*
=51-	=51-	=51-	=51-	=51-	=51-	=51-	=51-
*lig	*	*	*	*	*	*	*
1C	-ne-	2.c/	Be-	2G/	-di-	1r	.
.	.	.	.	2.A/	-xi-	.	.
.	.	4B-/	.	.	.	.	.
1F	.	2A/	-ne-	.	.	2.cc\	Be-
.	.	.	.	4B-/	.	.	.
.	.	2F/	.	2c\	.	.	.
.	.	.	.	.	.	4b-\	.
*Xlig	*	*	*	*	*	*	*
=52-	=52-	=52-	=52-	=52-	=52-	=52-	=52-
1F	-di-	2.F/	-di-	4d\	.	2a\	-ne-
.	.	.	.	4c/	.	.	.
.	.	.	.	4A/	.	2f/	.
.	.	4G/	.	4B-/	.	.	.
1F	-xi-	4A/	-xi-	2c/	.	2.f/	-di-
.	.	4G/	.	.	.	.	.
.	.	4A/	.	2d\	-sti	.	.
.	.	4B-/	.	.	.	4g/	.
=53-	=53-	=53-	=53-	=53-	=53-	=53-	=53-
1F	-ſti	4c/	.	2.c/	Do-	4a\	.
.	.	4B-/	.	.	.	4g\	.
.	.	4c\	.	.	.	4a\	.
.	.	4d\	.	4B-/	.	4b-\	.
1F	Do-	2c\	-sti	2.A/	.	2cc\	.
.	.	2d\	Do-	.	.	2a\	-xi-
.	.	.	.	4A/	-mi-	.	.
=54-	=54-	=54-	=54-	=54-	=54-	=54-	=54-
2F/	-mi-	2c/	.	1A	-ne	2.f/	-ſti
2F/	-ne	2f\	.	.	.	.	.
.	.	.	.	.	.	4g\	.
!	!	!LO:LB:g=original	!	!	!	!	!
*lig	*	*	*	*	*	*	*
1F	ter-	4d\	.	2r	.	2a\	Do-
.	.	4c/	.	.	.	.	.
.	.	4A/	.	2F/	ter-	2a\	-mi-
.	.	4B-/	.	.	.	.	.
=55-	=55-	=55-	=55-	=55-	=55-	=55-	=55-
1E	.	2c/	.	2G/	-ra(m)	2.g/	-ne
.	.	2B-/	-mi-	2G/	tu-	.	.
.	.	.	.	.	.	4g/	.
*Xlig	*	*	*	*	*	*	*
!LO:LB:g=original	!	!	!	!	!	!	!
*lig	*	*	*	*	*	*	*
1F	.	2A/	-ne	2c/	.	4a\	.
.	.	.	.	.	.	4g/	.
.	.	2A/	ter-	2.d\	.	4f/	.
.	.	.	.	.	.	4e/	.
=56-	=56-	=56-	=56-	=56-	=56-	=56-	=56-
1G	.	4B-/	.	.	.	2d/	.
.	.	4c/	.	4c\	.	.	.
.	.	4d\	.	4B-/	.	1g	ter-
.	.	4e\	.	4A/	.	.	.
*Xlig	*	*	*	*	*	*	*
1G	-ra(m)	2d\	.	1B-	.	.	.
.	.	2e\	-ra(m)	.	.	2g/	-ra(m)
=57-	=57-	=57-	=57-	=57-	=57-	=57-	=57-
*lig	*	*	*	*	*	*	*
1F	tu-	2.f\	tu-	1c	-am	4a\	tu-
.	.	.	.	.	.	4b-\	.
.	.	.	.	.	.	4cc\	.
.	.	4e\	.	.	.	4a\	.
1G	.	2d\	-am	2.B-/	a-	1b-	.
.	.	2e\	.	.	.	.	.
.	.	.	.	4c/	.	.	.
*Xlig	*	*	*	*	*	*	*
=58-	=58-	=58-	=58-	=58-	=58-	=58-	=58-
!	!	!	!	!	!	!LO:SIC:v:t=custos a	!
1F,<	-am	2f\	a-	4d\	-ver-	1a	-am
.	.	.	.	4c/	.	.	.
.	.	2.f\	-ver-	4B-/	.	.	.
.	.	.	.	4A/	.	.	.
!	!	!	!	!	!	!LO:LB:g=original	!
1D	a-	.	.	2B-/	.	2r	.
.	.	4e\	.	.	.	.	.
.	.	2d\	-ti-	4A/	-ti-	2.a\	a-
.	.	.	.	4G/	.	.	.
!	!	!	!	!LO:LB:g=original	!	!	!
=59-	=59-	=59-	=59-	=59-	=59-	=59-	=59-
1F	-ver-	1c	-ſti	2.A/	-sti	.	.
.	.	.	.	.	.	4b-\	.
.	.	.	.	.	.	2cc\	-ver-
.	.	.	.	4B-/	.	.	.
1.F	-ti-	2.f\	Ca-	2c\	.	2a\	.
.	.	.	.	2d\	.	2.f/	-ti-
.	.	4e\	.	.	.	.	.
=60-	=60-	=60-	=60-	=60-	=60-	=60-	=60-
.	.	2d\	-pti-	2.A/	ca-	.	.
.	.	.	.	.	.	4g/	.
2F/	-ſti	2.c/	-vi-	.	.	4a\	.
.	.	.	.	4G/	.	4b-\	.
1F	Ca-	.	.	4A/	-pti-	2cc\	.
.	.	4B-/	.	4G/	.	.	.
.	.	4A/	.	4A/	.	2dd\	.
.	.	4G/	.	4B-/	.	.	.
=61-	=61-	=61-	=61-	=61-	=61-	=61-	=61-
2F/	-pti-	2.A/	-ta-	2c\	.	2cc\	-sti
2F/	-vi-	.	.	2d\	.	1a	ca-
.	.	4B-/	.	.	.	.	.
*lig	*	*	*	*	*	*	*
1E	-ta-	2c/	.	2e\	.	.	.
.	.	1c\	-tem	1e\	-vi-	4g/	.
.	.	.	.	.	.	4f/	.
=62-	=62-	=62-	=62-	=62-	=62-	=62-	=62-
1C	.	.	.	.	.	2g/	-pti-
.	.	2c/	Ca-	2e\	-ta-	2a\	-vi-
*Xlig	*	*	*	*	*	*	*
1D	-te[m]	4B-/	.	2d\	-tem	4f/	-ta-
.	.	4A/	.	.	.	4e/	.
!	!	!LO:LB:g=original	!	!	!	!	!
.	.	2d\	-pti-	2.f\	.	4f/	.
.	.	.	.	.	.	4g/	.
=63-	=63-	=63-	=63-	=63-	=63-	=63-	=63-
*lig	*	*	*	*	*	*	*
1F	Ja-	2.c/	-vi-	.	.	4a\	.
.	.	.	.	4e\	.	4g\	.
.	.	.	.	2.c/	.	4a\	.
.	.	4d\	.	.	.	4b-\	.
1E	.	4e\	-ta-	.	.	2cc\	.
.	.	4f\	.	4d\	Ja-	.	.
.	.	4g\	.	4e\	.	2g/	-tem
.	.	4e\	.	4c/	.	.	.
*Xlig	*	*	*	*	*	*	*
=64-	=64-	=64-	=64-	=64-	=64-	=64-	=64-
0D	-cob	2.f\	.	2d\	.	2b-\	Ja-
.	.	.	.	1c	.	4a\	.
.	.	4e\	.	.	.	4g\	.
.	.	2d\	-te(m)	.	.	2a\	.
.	.	1f\	Ja-	2B-/	.	2d/	.
=65-	=65-	=65-	=65-	=65-	=65-	=65-	=65-
0C;;	.	.	.	0c;;	-cob	0g;;l	-cob
.	.	4e\	.	.	.	.	.
.	.	4d\	.	.	.	.	.
.	.	1e;;l	-cob	.	.	.	.
!	!	!	!	!	!	!LO:LB:g=original	!
=66||	=66||	=66||	=66||	=66||	=66||	=66||	=66||
*k[b-]	*	*k[b-]	*	*k[b-]	*	*k[b-]	*
*M2/1	*	*M2/1	*	*M2/1	*	*M2/1	*
*met(C|)	*	*met(C|)	*	*met(C|)	*	*met(C|)	*
!LO:TX:t=P:problem:znaki: BB- pod B-	!	!	!	!	!	!	!
1C	Glo-	1r	.	2r	.	0r	.
.	.	.	.	1c	Glo-	.	.
2.D/	.	2r	.	.	.	.	.
.	.	2.f\	Glo-	2B-/	-ri-	.	.
4D/	-ri-	.	.	.	.	.	.
!LO:LB:g=original	!	!	!	!	!	!	!
=67-	=67-	=67-	=67-	=67-	=67-	=67-	=67-
*lig	*	*	*	*	*	*	*
1C	-a	.	.	2.c/	.	2r	.
.	.	4f\	-ri-	.	.	.	.
.	.	2e\	-a	.	.	2.cc\	Glo-
.	.	.	.	4B-/	.	.	.
1F,<	.	2.f\	Pa-	2A/	-a	.	.
.	.	.	.	.	.	4cc\	-ri-
.	.	.	.	1c\	Pa-	2a\	-a
.	.	4g\	.	.	.	.	.
*Xlig	*	*	*	*	*	*	*
=68-	=68-	=68-	=68-	=68-	=68-	=68-	=68-
1F	Pa-	4a\	.	.	.	4cc\	Pa-
.	.	4g\	.	.	.	4b-\	.
.	.	2f\	.	2d\	.	4a\	.
.	.	.	.	.	.	4g\	.
!	!	!	!	!LO:LB:g=original	!	!	!
2F/	-tri	2f\	-tri	4c/	.	2a\	.
.	.	.	.	4B-/	.	.	.
2F/	et	2c/	et	4A/	.	2a\	-tri
.	.	.	.	4G/	.	.	.
=69-	=69-	=69-	=69-	=69-	=69-	=69-	=69-
2F/	Fi-	2d\	Fi-	2.A/	-tri	4f/	et
.	.	.	.	.	.	4g/	.
2F/	-li-	2c/	-li-	.	.	4a\	.
.	.	.	.	4A/	et	4b-\	.
2F/	-o	2f\	-o	2A/	Fi-	2cc\	.
2F/	et	2f\	et	2A/	-li-	2dd\	.
=70-	=70-	=70-	=70-	=70-	=70-	=70-	=70-
1E	Spi-	4g\	.	2G/	-o	2.cc\	fi-
.	.	4f\	.	.	.	.	.
.	.	4e\	.	2.c/	.	.	.
.	.	4d\	.	.	.	4b-\	-li-
!	!	!LO:LB:g=original	!	!	!	!	!
1F	.	2c\	.	.	.	1a	-o
.	.	.	.	4B-/	et	.	.
.	.	2f\	.	2A/	.	.	.
=71-	=71-	=71-	=71-	=71-	=71-	=71-	=71-
2G\	-ri-	2d\	.	4B-/	Spi-	4g/	et
.	.	.	.	4c/	.	4a\	.
2G\	-tu-	2.B-/	.	4d\	.	4b-\	.
.	.	.	.	4e\	.	4cc\	.
1G	-i	.	.	2d\	-ri-	2dd\	Spi-
.	.	4c\	.	.	.	.	.
.	.	4d\	.	2B-/	-tu-	2g/	-ri-
.	.	4e\	.	.	.	.	.
=72-	=72-	=72-	=72-	=72-	=72-	=72-	=72-
*lig	*	*	*	*	*	*	*
1F	San-	2.f\	.	2c/	-i	2a\	-tu
.	.	.	.	2A/	San-	2cc\	-i
.	.	4e\	.	.	.	.	.
1G	.	4d\	.	4B-/	.	2b-\	San-
.	.	4c\	.	4c/	.	.	.
.	.	2B-/	.	4d\	.	2b-\	-cto
.	.	.	.	4e\	.	.	.
*Xlig	*	*	*	*	*	*	*
=73-	=73-	=73-	=73-	=73-	=73-	=73-	=73-
1F,<	-cto	4c/	Si-	2f\	.	2a\	Si-
.	.	4B-/	.	.	.	.	.
.	.	4A/	.	2c\	.	2cc\	.
.	.	4G/	.	.	.	.	.
!	!	!	!	!	!	!LO:LB:g=original	!
1D	Si-	2A/	-cut	1d	-cto	2cc\	-cut
.	.	2d\	e-	.	.	2b-\	e-
=74-	=74-	=74-	=74-	=74-	=74-	=74-	=74-
1F	-cut	0c	-rat	2r	.	2a\	-rat
.	.	.	.	2c/	Si-	4f/	e-
.	.	.	.	.	.	4g/	.
1.F	e-	.	.	2c/	-cut	4a\	.
.	.	.	.	.	.	4g\	.
.	.	.	.	2c/	e-	4a\	.
.	.	.	.	.	.	4b-\	.
=75-	=75-	=75-	=75-	=75-	=75-	=75-	=75-
.	.	2r	.	2A/	-rat	2cc\	-rat
2F/	-rat	2c/	In	4F/	in	2a\	In
.	.	.	.	4G/	.	.	.
2F/	in	2c/	p(rin)-	4A/	.	2a\	p(rin)-
.	.	.	.	4G/	.	.	.
2F/	prin-	2c/	-ci-	4A/	.	2.cc\	-ci-
.	.	.	.	4B-/	.	.	.
=76-	=76-	=76-	=76-	=76-	=76-	=76-	=76-
2F/	-ci-	2A/	-pi-	2c/	prin-	.	.
.	.	.	.	.	.	4b-\	-pi-
2F/	-pi-	4F/	-o	2d\	-ci-	2a\	-o
.	.	4G/	.	.	.	.	.
1F	-o	4A/	.	2.c/	-pi-	2a\	et
.	.	4G/	.	.	.	.	.
.	.	4A/	.	.	.	2a\	nunc
!	!	!	!	!LO:SIC:v:t=custos e	!	!	!
.	.	4B-/	.	4d\	.	.	.
!LO:LB:g=original	!	!	!	!LO:LB:g=original	!	!	!
=77-	=77-	=77-	=77-	=77-	=77-	=77-	=77-
*lig	*	*	*	*	*	*	*
1E	et	2c/	.	4e\	.	2g/	et
.	.	.	.	4f\	.	.	.
.	.	2G/	Et	2.g\	-o	2.b-\	.
1C,<	.	2G/	nunc	.	.	.	.
.	.	.	.	4f\	.	4b-\	.
.	.	1A/	.	2e\	.	4a\	.
.	.	.	.	.	.	4g\	.
*Xlig	*	*	*	*	*	*	*
=78-	=78-	=78-	=78-	=78-	=78-	=78-	=78-
1D	nunc	.	.	2.d\	et	2.f/	Sem-
.	.	2B-/	et	.	.	.	.
.	.	.	.	4d\	nunc	4g\	.
*lig	*	*	*	*	*	*	*
1F	et	4A/	Sem-	2c/	.	4a\	.
.	.	4B-/	.	.	.	4g\	.
.	.	4c\	.	2A/	.	4a\	.
!	!	!LO:SIC:v:t=custos e	!	!	!	!	!
.	.	4d\	.	.	.	4b-\	.
!	!	!LO:LB:g=original	!	!	!	!	!
=79-	=79-	=79-	=79-	=79-	=79-	=79-	=79-
1E	.	2e\	.	2G/	.	1cc	.
.	.	2e\	-per	1c	.	.	.
*Xlig	*	*	*	*	*	*	*
1D	S(em-	1f	Sem-	.	.	1dd	.
.	.	.	.	2B-/	Sem-	.	.
=80-	=80-	=80-	=80-	=80-	=80-	=80-	=80-
1C,<	-pe)r	1e	-per	1c	-per	1g	-per
1D	et	2r	.	1r	.	0r	.
.	.	1f\	Et	.	.	.	.
=81-	=81-	=81-	=81-	=81-	=81-	=81-	=81-
1F	in	.	.	2r	.	.	.
.	.	2f\	in	1c	et	.	.
1.F	Sae-	4f\	Se-	.	.	2r	.
.	.	4e\	.	.	.	.	.
.	.	4f\	.	2c/	in	1cc\	Et
.	.	4g\	.	.	.	.	.
=82-	=82-	=82-	=82-	=82-	=82-	=82-	=82-
.	.	4a\	.	4c/	Sae-	.	.
.	.	4g\	.	4B-/	.	.	.
2F/	-cu-	4f\	.	4A/	.	2cc\	in
.	.	4e\	.	4G/	.	.	.
!	!	!	!	!	!	!LO:LB:g=original	!
1F	-la	2.f\	-cu-	2A/	.	4cc\	Se-
.	.	.	.	.	.	4b-\	.
.	.	.	.	2c/	-cu-	4a\	.
.	.	4f\	-la	.	.	4g\	.
=83-	=83-	=83-	=83-	=83-	=83-	=83-	=83-
0F	Sae-	4f\	.	1c	-la	2a\	cu-
.	.	4g\	.	.	.	.	.
.	.	2.a\	Se-	.	.	2f/	-la
.	.	.	.	4c/	Se-	4f/	.
.	.	4g\	.	4B-/	.	4g/	.
.	.	4f\	.	4A/	.	4a\	.
.	.	4e\	.	4G/	.	4b-\	.
=84-	=84-	=84-	=84-	=84-	=84-	=84-	=84-
1F	-cu-	2f\	.	2A/	.	2.a\	Se-
.	.	2c/	-cu-	2A/	-cu-	.	.
.	.	.	.	.	.	4a\	-cu-
*lig	*	*	*	*	*	*	*
1F	-lo-	2.c/	-lo-	4A/	-lo-	1a	-lo-
.	.	.	.	4G/	.	.	.
.	.	.	.	4A/	.	.	.
.	.	4d\	.	4B-/	.	.	.
=85-	=85-	=85-	=85-	=85-	=85-	=85-	=85-
1E	.	4e\	.	2c/	.	1g	-ru(m)
.	.	4f\	.	.	.	.	.
.	.	1g	.	2G/	-ru(m)	.	.
*Xlig	*	*	*	*	*	*	*
*lig	*	*	*	*	*	*	*
1C	-ru(m)	.	.	2.c/	Sae-	2r	.
.	.	2e\	-ru(m)	.	.	2g/	Se-
.	.	.	.	4B-/	.	.	.
=86-	=86-	=86-	=86-	=86-	=86-	=86-	=86-
1D	.	2d\	Se-	4A/	.	2f/	-cu-
.	.	.	.	4G/	.	.	.
.	.	2d\	-cu-	1A	.	4f/	-lo-
.	.	.	.	.	.	4g/	.
*Xlig	*	*	*	*	*	*	*
*lig	*	*	*	*	*	*	*
1F	a-	2c/	-lo-	.	.	2.a\	.
!	!	!LO:SIC:v:t=custos e	!	!	!	!	!
.	.	2d\	-ru(m)	2A/	-cu-	.	.
.	.	.	.	.	.	4b-\	.
!	!	!LO:LB:g=original	!	!	!	!	!
=87-	=87-	=87-	=87-	=87-	=87-	=87-	=87-
1E	.	2e\	a-	2.G/	-lo-	1cc	-ru(m)
.	.	1g	.	.	.	.	.
.	.	.	.	4A/	-ru(m)	.	.
*Xlig	*	*	*	*	*	*	*
0D	.	.	.	2B-/	a-	0dd	a-
.	.	4f\	.	4A/	.	.	.
!	!	!	!	!LO:SIC:v:t=custos a	!	!	!
.	.	4e\	.	4G/	.	.	.
!	!	!	!	!LO:LB:g=original	!	!	!
=88-	=88-	=88-	=88-	=88-	=88-	=88-	=88-
!	!	!	!	!LO:TX:t=P:problem:słabo widoczny takt	!	!	!
.	.	1f	.	2A/	.	.	.
.	.	.	.	2B-/	.	.	.
1C;;l	-men	1e;;l	-men	1cl	-[men]	1g;;l	-men
==	==	==	==	==	==	==	==
*-	*-	*-	*-	*-	*-	*-	*-
!!!system-decoration: [(s1,s2,s3,s4)]
!!!RDF**kern: < = below
!!!RDF**kern: l = terminal long
!!!AIN: 2 alto 1 tenor 1 vox
!!!ENC: Marta Lawrence
!!!END: 2021-07-28
!!!ENC: Katarzyna Serwa
!!!END: 2021-07-07
